X:1
T:The City of God
T:The City of God
T:Barney E. Warren, pub.1911
T:Horatius Bonar; v. 4 arr., pub.1911
T:PUBLIC DOMAIN
C:Barney E. Warren, pub.1911
Z:Horatius Bonar; v. 4 arr., pub.1911
Z:PUBLIC DOMAIN
%%score 1 ( 2 3 )
L:1/8
Q:1/4=90
M:4/4
K:Ab
V:1 treble nm="Treble"
V:2 bass nm="Bass"
V:3 bass 
V:1
 [CE]2 [A,C] [B,D] [CE]2 [CA]2 | [Ec]4 [CA]2 [EA]2 | [DF]2 [DF]2 [=DB]2 [DA]2 | (([EG]4 [DF]2)) | %4
w: 1.~Bathed in un- fall- en|sun- light, It-|self a sun- born|gem, *|
w: 2.~Calm in her queen- ly|glo- ry, She|sits all joy and|light: *|
w: 3.~Shad- ing her gold- en|pave- ment, The|tree of life is|seen, *|
w: 4.~Rich are the price- less|jew- els That|deck her might- y|wall, *|
 [DE]2 | [CE]2 [CA]2 [Ec]2 [EB]2 | [EA]4 [EG]2 [DF]2 | [CE]2 [Ed]2 [Ec]2 [DB]2 | [CA]6 z2 || %9
w: Fair|gleams the glo- rious|cit- y, The|new Je- ru- sa-|lem!|
w: Pure|in her brid- al|beau- ty, Her|rai- ment fest- al|white!|
w: Its|fruit- rich branch- es|wav- ing, Ce-|les- tial ev- er-|green.|
w: And|from the throne of|God- head A|won- drous ra- diance|falls.|
"^Refrain" [CE]2 [CE]2 [CE]2 [CE]2 | [DF]2 [DF]2 [DF]2 [DF]2 | [EG]3 [=DB] [DF]2 [DA]2 | %12
w: Cit- y fair- est,|splen- dor rar- est,|Let me gaze on|
w: Home of glad- ness,|free from sad- ness,|Let me dwell in|
w: Tree of won- der,|let me un- der|Thee for- ev- er|
w: Cit- y fair- est,|splen- dor rar- est,|Let me gaze on|
 (([EG]4 [DF]2)) | [DE]2 | [CE]2 [CE]2 [CE]2 [CE]2 | [DF]2 [DF]2 [DF]2 [DF]2 | %16
w: thee! *|O|cit- y fair- est,|splen- dor rar- est,|
w: thee! *|O|home of glad- ness,|free from sad- ness,|
w: rest! *|O|tree of won- der,|let me un- der|
w: thee! *|O|cit- y fair- est,|splen- dor rar- est,|
 [EG]3 [=DB] [_DF]2 [DG]2 | [CA]6 z2 |] %18
w: Home for all the|free!|
w: Mine e- ter- nal-|ly!|
w: Thy rich boughs be|blest!|
w: Home for all the|free!|
V:2
 [A,,A,]2 [A,,E,] [A,,E,] [A,,A,]2 [A,,A,]2 | [A,,A,]4 [A,,E,]2 [C,A,]2 | %2
 [D,A,]2 [D,A,]2 [B,,B,]2 [B,,B,]2 | (B,4 A,2) | [E,G,]2 | [A,,A,]2 [A,,A,]2 [A,,A,]2 [B,,G,]2 | %6
 [C,A,]4 [C,A,]2 [D,A,]2 | [E,A,]2 [E,B,]2 [E,A,]2 [E,G,]2 | [A,,A,]6 z2 || %9
 [A,,A,]2 [A,,A,]2 [A,,A,]2 [A,,A,]2 | [D,A,]2 [D,A,]2 [D,A,]2 [D,A,]2 | %11
 [B,,B,]3 [B,,F,] [B,,B,]2 [B,,B,]2 | (B,4 A,2) | [E,G,]2 | [A,,A,]2 [A,,A,]2 [A,,A,]2 [A,,A,]2 | %15
 [D,A,]2 [D,A,]2 [D,A,]2 [D,A,]2 | [B,,B,]3 [B,,F,] [E,G,]2 [E,B,]2 | [A,,E,A,]6 z2 |] %18
V:3
 x8 | x8 | x8 | E,6 | z2 | x8 | x8 | x8 | x8 || x8 | x8 | x8 | E,6 | z2 | x8 | x8 | x8 | x8 |] %18

